svgs/sharp-light/truck-front.svg

<svg xmlns="http://www.w3.org/2000/svg" viewBox="0 0 512 512"><!--! Font Awesome Pro 6.6.0 by @fontawesome - https://fontawesome.com License - https://fontawesome.com/license (Commercial License) Copyright 2024 Fonticons, Inc. --><path d="M32 32l0 192 39.5 0 41.4-117.3L116.7 96 128 96l256 0 11.3 0 3.8 10.7L440.5 224l39.5 0 0-192L32 32zm0 224l0 160 32 0 384 0 32 0 0-160L32 256zM0 224L0 32 0 0 32 0 480 0l32 0 0 32 0 192 0 32 0 160 0 32-32 0 0 64-32 0 0-64L64 448l0 64-32 0 0-64L0 448l0-32L0 256l0-32zm105.4 0l301.1 0-33.9-96-233.4 0-33.9 96zM80 328a24 24 0 1 1 48 0 24 24 0 1 1 -48 0zm328-24a24 24 0 1 1 0 48 24 24 0 1 1 0-48z"/></svg>

<svg xmlns="http://www.w3.org/2000/svg" viewBox="0 0 512 512"><!--! Font Awesome Pro 6.4.2 by @fontawesome - https://fontawesome.com License - https://fontawesome.com/license (Commercial License) Copyright 2023 Fonticons, Inc. --><path d="M32 32V224H71.5l41.4-117.3L116.7 96H128 384h11.3l3.8 10.7L440.5 224H480V32H32zm0 224V416H64 448h32V256H32zM0 224V32 0H32 480h32V32 224v32V416v32H480v64H448V448H64v64H32V448H0V416 256 224zm105.4 0H406.6l-33.9-96H139.3l-33.9 96zM80 328a24 24 0 1 1 48 0 24 24 0 1 1 -48 0zm328-24a24 24 0 1 1 0 48 24 24 0 1 1 0-48z"/></svg>
